icons/svg/nutriton.svg

﻿<?xml version="1.0" encoding="utf-8"?>
<!DOCTYPE svg PUBLIC "-//W3C//DTD SVG 1.1//EN" "http://www.w3.org/Graphics/SVG/1.1/DTD/svg11.dtd">
<svg xmlns="http://www.w3.org/2000/svg" xmlns:xlink="http://www.w3.org/1999/xlink" version="1.1" baseProfile="full" width="24" height="24" viewBox="0 0 24.00 24.00" enable-background="new 0 0 24.00 24.00" xml:space="preserve">
	<path fill="#000000" fill-opacity="1" stroke-width="0.2" stroke-linejoin="round" d="M 22,18C 22,20.2091 20.2091,22 18,22L 14,22C 11.7908,22 9.99999,20.2091 9.99999,18L 9.99999,16L 22,16L 22,18 Z M 4,3.00002L 14,3.00002C 15.1046,3.00002 16,3.89545 16,5.00002L 16,14L 8,14L 8,19L 4,19C 2.89543,19 2,18.1046 2,17L 2,5.00002C 2,3.89545 2.89543,3.00002 4,3.00002 Z M 4,6.00002L 4,8.00002L 6,8.00002L 6,6.00002L 4,6.00002 Z M 14,8.00002L 14,6.00002L 8,6.00002L 8,8.00002L 14,8.00002 Z M 4,10L 4,12L 5.99999,12L 5.99999,10L 4,10 Z M 7.99999,10L 7.99999,12L 14,12L 14,10L 7.99999,10 Z M 4,14L 4,16L 5.99999,16L 5.99999,14L 4,14 Z "/>
</svg>

<svg xmlns="http://www.w3.org/2000/svg" version="1.1" baseProfile="full" width="24" height="24" viewBox="0 0 24.00 24.00" xml:space="preserve"><path fill="#000" fill-opacity="1" stroke-width=".2" stroke-linejoin="round" d="M22 18c0 2.21-1.79 4-4 4h-4c-2.21 0-4-1.79-4-4v-2h12v2zM4 3h10c1.105 0 2 .895 2 2v9H8v5H4c-1.105 0-2-.895-2-2V5c0-1.105.895-2 2-2zm0 3v2h2V6H4zm10 2V6H8v2h6zM4 10v2h2v-2H4zm4 0v2h6v-2H8zm-4 4v2h2v-2H4z"/></svg>
